icon/ir/chromecast.svg

<svg stroke-width="1.5" viewBox="0 0 24 24" fill="none" xmlns="http://www.w3.org/2000/svg" height="1em" width="1em">
  <path d="M2 20.01L2.01 19.9989" stroke="currentColor" stroke-linecap="round" stroke-linejoin="round"/>
  <path d="M15 20H20C21.1046 20 22 19.1046 22 18V6C22 4.89543 21.1046 4 20 4H4C2.89543 4 2 4.89543 2 6V7" stroke="currentColor" stroke-linecap="round" stroke-linejoin="round"/>
  <path d="M2 16C4 16.5 5.5 18 6 20" stroke="currentColor" stroke-linecap="round" stroke-linejoin="round"/>
  <path d="M2 12C6 12.5 9.5 16 10 20" stroke="currentColor" stroke-linecap="round" stroke-linejoin="round"/>
</svg>

<svg width="24" height="24" stroke-width="1.5" fill="none" xmlns="http://www.w3.org/2000/svg"><path d="m2 20.01.01-.011M15 20h5a2 2 0 0 0 2-2V6a2 2 0 0 0-2-2H4a2 2 0 0 0-2 2v1M2 16c2 .5 3.5 2 4 4M2 12c4 .5 7.5 4 8 8" stroke="currentColor" stroke-linecap="round" stroke-linejoin="round"/></svg>
